X: 1256
T: Bert Jamieson's Highland Schottische
B: australian traditional tunes wiki
M:4/4
L:1/8
R: Schottische
Q: 1/4=100
K:G
V:1 
(3efe|:"G"d>G B>c d>G B>e|d>B G>B "D"A2 (3efe|"G"d>B B>c d>G B>e|"D"d>B A>B "G"G2 (3 def|
"G"g>d B>d e>d B>d|g>d B>G "D"A2 (3def|"G"g2"D"f2"C"e2"D"d2|1"Am"e>c A>B "G"B>G (3efe:|2"Am"e>c (3ABc "G"B>A G||
% abcbook-tune_id 6342d53a9d0a034df9e7fb87


% abcbook-boost 0
% abcbook-tablature 
% abcbook-transpose 
% abcbook-lastupdated 1665324356268
% abcbook-soundfonts 
% abcbook-repeats 1
% NFF Book 2016

